!! 00000] TT[WS
!!!OTL: Gonggunr kuqi
!!!ARE: Asia, China, Shanxi Datong
!! Ethnic Group: Han
!! WII, 146 (1)
!!!SCT: J0621
!!!YEM: Copyright 1995, estate of Helmut Schaffrath.
**kern
*ICvox
*Ivox
*M2/4
*k[f#c#g#]
*A:
{8b
8b
8b
8b
=1
8.dd
16g#
8a
8f#
=2
2a}
=3
{8b
16b
16a
8f#
16ff#
16a
=4
8b
16a
16f#
8.e
16d
=5
2e}
=6
{8.e
16f#
8e
16e
16f#
=7
8a
8a
8b
8f#
=8
8c#
8c#
8e
8c#
=9
8.B
16c#
4B}
=10
{8a
16a
16a
8a
8cc#
=11
4.b
8cc#
=12
8.a
16f#
8e
8f#
=13
2e}
==
!!!AGN: Xiaodiao. Qingge, Aisu
!!!ONB: ESAC (Essen Associative Code) Database: CHINA
!!!AMT: simple duple
!!!AIN: vox
!!!EED: Helmut Schaffrath
!!!EEV: 1.0
*-
